icons/breezeDark/actions/24/document-save-all.svg

<svg viewBox="0 0 24 24" xmlns="http://www.w3.org/2000/svg"><path d="m7 3.0039062v.9960938 3h1v-3h2v3h1v-3h2v3h3v-3h.582031l1.417969 1.4179688v8.5820312h-2v1h2 1v-1-8.2421875-.7539063h-.003906l-1.996094-2zm-4 4.9960938v1 10 1h1 2 1 4 1 2 1v-1-8.242188-.753906-.003906h-.003906l-1.996094-1.9960938v-.0039062zm1 1h2v3 1h6v-1-3h.582031l1.417969 1.417969v8.582031h-2v-4h-6v1 3h-2zm3 0h2v3h-2zm0 7h4v3h-4z" fill="#c0c0c0" transform="translate(1 1)"/></svg>

<svg xmlns="http://www.w3.org/2000/svg" viewBox="0 0 24 24">
  <defs id="defs3051">
    <style type="text/css" id="current-color-scheme">
      .ColorScheme-Text {
        color:#c0c0c0;
      }
      </style>
  </defs>
 <path 
    style="fill:currentColor;fill-opacity:1;stroke:none" 
    d="M 7 3.0039062 L 7 4 L 7 7 L 8 7 L 8 4 L 10 4 L 10 7 L 11 7 L 11 4 L 13 4 L 13 7 L 16 7 L 16 4 L 16.582031 4 L 18 5.4179688 L 18 14 L 16 14 L 16 15 L 18 15 L 19 15 L 19 14 L 19 5.7578125 L 19 5.0039062 L 18.996094 5.0039062 L 17 3.0039062 L 7 3.0039062 z M 3 8 L 3 9 L 3 19 L 3 20 L 4 20 L 6 20 L 7 20 L 11 20 L 12 20 L 14 20 L 15 20 L 15 19 L 15 10.757812 L 15 10.003906 L 15 10 L 14.996094 10 L 13 8.0039062 L 13 8 L 3 8 z M 4 9 L 6 9 L 6 12 L 6 13 L 12 13 L 12 12 L 12 9 L 12.582031 9 L 14 10.417969 L 14 19 L 12 19 L 12 15 L 6 15 L 6 16 L 6 19 L 4 19 L 4 9 z M 7 9 L 9 9 L 9 12 L 7 12 L 7 9 z M 7 16 L 11 16 L 11 19 L 7 19 L 7 16 z "
    class="ColorScheme-Text"
     transform="translate(1,1)"
    />  
</svg>
